ssr-blog/static/popular.svg

<svg width="20" height="20" viewBox="0 0 20 20" fill="none" xmlns="http://www.w3.org/2000/svg">
<rect width="20" height="20" fill="white"/>
<path fill-rule="evenodd" clip-rule="evenodd" d="M10 3.125C10.2379 3.125 10.4552 3.26005 10.5605 3.47336L12.3464 7.09154L16.3404 7.67532C16.5758 7.70972 16.7712 7.87473 16.8445 8.10098C16.9179 8.32723 16.8565 8.57552 16.6861 8.74147L13.7966 11.5559L14.4785 15.5318C14.5187 15.7663 14.4223 16.0033 14.2299 16.1432C14.0374 16.283 13.7822 16.3014 13.5716 16.1907L10 14.3124L6.42843 16.1907C6.21785 16.3014 5.96267 16.283 5.77018 16.1432C5.5777 16.0033 5.48129 15.7663 5.52151 15.5318L6.20344 11.5559L3.31394 8.74147C3.14355 8.57552 3.08213 8.32723 3.15549 8.10098C3.22885 7.87473 3.42428 7.70972 3.65963 7.67532L7.6536 7.09154L9.43958 3.47336C9.54487 3.26005 9.76213 3.125 10 3.125ZM10 5.16203L8.62921 7.93914C8.53825 8.12342 8.36251 8.25121 8.15916 8.28093L5.09278 8.72913L7.3111 10.8898C7.45852 11.0334 7.52581 11.2403 7.49102 11.4432L6.96763 14.4948L9.70911 13.0531C9.89122 12.9573 10.1088 12.9573 10.2909 13.0531L13.0324 14.4948L12.509 11.4432C12.4742 11.2403 12.5415 11.0334 12.6889 10.8898L14.9073 8.72913L11.8409 8.28093C11.6375 8.25121 11.4618 8.12342 11.3708 7.93914L10 5.16203Z" fill="#F2C94C"/>
<path d="M6.5 11L4 8H10H16L13.5 11V14.5L13 15.5L10 14L9 14.5L6.5 15.5V14.5V11Z" fill="#F2C94C"/>
</svg>

<svg width="20" height="20" fill="none" xmlns="http://www.w3.org/2000/svg"><path fill="#fff" d="M0 0h20v20H0z"/><path fill-rule="evenodd" clip-rule="evenodd" d="M10 3.125c.238 0 .455.135.56.348l1.786 3.619 3.994.583a.625.625 0 01.346 1.066l-2.89 2.815.683 3.976a.625.625 0 01-.907.659L10 14.312l-3.572 1.879a.625.625 0 01-.906-.66l.681-3.975-2.89-2.815a.625.625 0 01.347-1.066l3.994-.583L9.44 3.473a.625.625 0 01.56-.348zm0 2.037L8.63 7.939a.625.625 0 01-.47.342l-3.067.448 2.218 2.16c.148.144.215.351.18.554l-.523 3.052 2.741-1.442a.625.625 0 01.582 0l2.741 1.442-.523-3.052a.625.625 0 01.18-.553l2.218-2.16-3.066-.45a.625.625 0 01-.47-.34L10 5.161z" fill="#F2C94C"/><path d="M6.5 11L4 8h12l-2.5 3v3.5l-.5 1-3-1.5-1 .5-2.5 1V11z" fill="#F2C94C"/></svg>
